X:69
T:Gan Ainm
S:Paidraig McDonagh, Galway (banjo)
D:Private tape
R:Reel
N:As played
Z:Bernie Stocks
M:4/4
K:D %Em modal
B2GB EBGB | A2FA A,DFA | B2GB EBGA | Bdef gfed | B2GB dBGB | A2FA dAFA |
BEED EEEA | (3Bcd ed (3Bcd ef || g2ga gfed | d2Ad Bdef | gg(3agf gfed |
BdAd BEE2 | gggf efed | BdBA GBFA | BEEF GFGA | Bded BdAd || E4 |
<end>
<start>
